src/images/about/about-bg.svg

<svg width="523" height="622" viewBox="0 0 523 622" fill="none" xmlns="http://www.w3.org/2000/svg">
<path d="M127.119 530.771C127.163 526.554 127.206 522.614 127.249 518.681C127.951 518.469 128.307 518.254 128.647 518.276C134.925 518.682 141.195 519.209 147.478 519.503C150.42 519.64 153.383 519.302 156.338 519.245C162.389 519.127 162.076 520.106 164.946 514.558C168.899 506.915 173.166 499.424 177.12 491.783C178.896 488.352 180.082 484.638 181.818 481.184C184.921 475.009 188.201 468.915 191.475 462.822C194.281 457.602 197.182 452.429 200.044 447.236C200.357 446.669 200.668 446.098 201.023 445.555C202.519 443.268 204.593 442.206 207.476 442.225C217.881 442.292 228.287 442.226 238.692 442.206C272.486 442.14 306.28 442.124 340.074 441.974C351.326 441.924 362.576 441.547 373.826 441.273C377.616 441.181 381.405 440.989 385.19 440.763C387.906 440.6 388.119 440.642 389.393 443.053C393.079 450.029 396.756 457.01 400.429 463.993C403.625 470.07 406.691 476.213 410.029 482.216C415.033 491.216 420.095 500.191 425.404 509.024C427.256 512.105 429.944 514.71 432.18 517.582C432.968 518.594 433.986 518.453 435.015 518.429C443.977 518.217 452.938 517.988 461.9 517.778C463.419 517.742 464.94 517.773 466.722 517.773C466.908 518.458 467.278 519.219 467.299 519.989C467.538 528.558 467.767 537.128 467.892 545.699C467.924 547.933 467.563 548.274 465.286 548.526C461.875 548.905 458.439 549.058 455.022 549.385C451.837 549.691 451.866 549.754 451.9 552.706C452.081 568.565 452.239 584.425 452.406 600.285C452.464 605.805 452.53 611.326 452.586 616.847C452.599 618.13 452.588 619.414 452.588 620.801C451.149 621.646 449.611 621.479 448.125 621.47C434.857 621.389 421.589 621.263 408.321 621.2C382.069 621.075 355.818 620.97 329.566 620.878C318.111 620.838 306.655 620.849 295.2 620.836C281.943 620.821 268.685 620.816 255.428 620.784C253.042 620.778 250.657 620.594 248.272 620.611C234.539 620.708 220.805 620.906 207.072 620.946C186.07 621.008 165.067 620.97 144.065 620.968C143.317 620.968 142.568 620.896 141.634 620.849C141.527 620.063 141.358 619.366 141.349 618.667C141.181 605.574 140.958 592.48 140.916 579.386C140.897 573.777 141.237 568.165 141.464 562.557C141.565 560.074 141.735 557.592 141.977 555.119C142.135 553.498 141.32 552.685 139.833 552.4C138.436 552.133 137.014 551.979 135.598 551.811C132.864 551.486 130.128 551.187 127.119 550.847C127.119 544.105 127.119 537.576 127.119 530.771ZM214.54 522.575C217.88 522.609 221.219 522.652 224.558 522.675C243.244 522.802 261.931 522.936 280.617 523.042C288.059 523.084 295.502 523.054 302.945 523.068C315.433 523.091 327.921 523.153 340.409 523.142C353.168 523.131 365.926 523.073 378.684 522.975C380.155 522.964 381.622 522.572 383.4 522.311C382.527 520.301 381.897 518.567 381.045 516.941C377.514 510.202 373.935 503.487 370.336 496.782C368.01 492.448 365.673 488.119 363.238 483.843C361.847 481.4 360.025 479.983 356.671 480C326.52 480.15 296.368 480.093 266.216 480.098C263.179 480.099 260.141 480.073 257.104 480.112C249.472 480.207 241.841 480.416 234.209 480.406C231.055 480.402 229.08 481.484 227.767 484.351C224.992 490.411 222.141 496.457 218.941 502.314C216.141 507.439 212.799 512.285 209.744 517.282C208.947 518.587 208.327 519.992 207.656 521.291C209.756 522.999 211.936 522.43 214.54 522.575Z" fill="url(#paint0_linear_24_1203)" fill-opacity="0.15"/>
<path d="M86.3975 545.162C86.3975 570.886 86.3975 596.333 86.3975 622C59.6199 622 33.0486 622 6.10294 622C6.10294 620.956 6.10207 619.884 6.10304 618.811C6.12685 592.893 6.16677 566.975 6.1716 541.057C6.18214 484.599 6.1749 428.141 6.17448 371.682C6.17448 370.76 6.37864 369.779 6.12492 368.926C5.45963 366.69 6.75591 365.685 8.51832 364.855C14.0915 362.23 19.6848 359.643 25.2283 356.961C39.1297 350.234 52.9875 343.423 66.9053 336.729C72.7003 333.941 78.6017 331.36 84.4613 328.698C84.9582 328.473 85.5056 328.351 86.3975 328.061C86.3975 400.521 86.3976 472.703 86.3975 545.162Z" fill="url(#paint1_linear_24_1203)" fill-opacity="0.15"/>
<path d="M516.197 249.256C518.099 248.356 519.576 248.345 521.498 249.262L520.426 130.863C519.264 130.336 518.317 130.397 517.2 130.912C511.095 133.729 504.977 136.52 498.84 139.27C478.075 148.577 457.577 158.41 437.013 168.121C389.031 190.78 340.802 212.949 292.681 235.331C235.71 261.83 178.756 288.364 121.748 314.791C119.152 315.994 118.307 317.452 118.369 320.095C118.672 332.815 118.825 345.538 119.033 358.26L119.034 358.328C119.038 358.582 119.042 358.838 119.086 359.087C119.116 359.252 119.234 359.403 119.444 359.826H122.094C174.218 359.826 226.343 359.819 278.468 359.851C280.338 359.852 281.991 359.478 283.666 358.687C305.172 348.53 326.697 338.409 348.222 328.289C378.237 314.177 408.258 300.077 438.273 285.964L445.66 282.491C469.182 271.432 492.704 260.373 516.197 249.256Z" fill="url(#paint2_linear_24_1203)" fill-opacity="0.15"/>
<path d="M518.125 96.9151C519.816 96.1458 521.184 96.0747 522.924 96.8846L523 0.630365C521.311 -0.17345 519.951 -0.234141 518.219 0.596507C504.123 7.35727 489.979 14.0253 475.845 20.7129C441.84 36.8032 407.83 52.8845 373.826 68.9771C332.712 88.4345 291.604 107.904 250.49 127.36C211.774 145.682 173.049 163.986 134.336 182.311C100.332 198.406 66.3444 214.532 32.3391 230.624C-10.7442 251.011 -53.8385 271.377 -96.9232 291.762C-97.5621 292.064 -98.1367 292.493 -99 293.021C-95.9599 294.508 -93.2445 295.844 -90.5224 297.168C-64.1933 309.966 -37.8612 322.759 -11.5388 335.571C-10.2246 336.211 -9.11892 336.597 -7.55489 335.888C0.904648 332.055 9.48985 328.479 17.9349 324.617C40.9488 314.092 63.8839 303.406 86.9101 292.906C100.531 286.695 114.294 280.775 127.941 274.616C138.567 269.819 149.082 264.792 159.703 259.984C169.543 255.529 179.471 251.258 189.33 246.842C191.997 245.647 194.503 244.115 197.17 242.92C204.089 239.822 211.107 236.926 217.997 233.768C242.64 222.475 267.201 211.014 291.874 199.783C367.275 165.461 442.716 131.221 518.125 96.9151Z" fill="url(#paint3_linear_24_1203)" fill-opacity="0.15"/>
<defs>
<linearGradient id="paint0_linear_24_1203" x1="212" y1="0" x2="212" y2="622" gradientUnits="userSpaceOnUse">
<stop stop-color="#080A08"/>
<stop offset="1" stop-color="#FFD874" stop-opacity="0"/>
</linearGradient>
<linearGradient id="paint1_linear_24_1203" x1="212" y1="0" x2="212" y2="622" gradientUnits="userSpaceOnUse">
<stop stop-color="#080A08"/>
<stop offset="1" stop-color="#FFD874" stop-opacity="0"/>
</linearGradient>
<linearGradient id="paint2_linear_24_1203" x1="212" y1="0" x2="212" y2="622" gradientUnits="userSpaceOnUse">
<stop stop-color="#080A08"/>
<stop offset="1" stop-color="#FFD874" stop-opacity="0"/>
</linearGradient>
<linearGradient id="paint3_linear_24_1203" x1="212" y1="0" x2="212" y2="622" gradientUnits="userSpaceOnUse">
<stop stop-color="#080A08"/>
<stop offset="1" stop-color="#FFD874" stop-opacity="0"/>
</linearGradient>
</defs>
</svg>

<svg fill="none" height="622" viewBox="0 0 523 622" width="523" xmlns="http://www.w3.org/2000/svg" xmlns:xlink="http://www.w3.org/1999/xlink"><linearGradient id="a" gradientUnits="userSpaceOnUse" x1="212" x2="212" y1="0" y2="622"><stop offset="0" stop-color="#080a08"/><stop offset="1" stop-color="#ffd874" stop-opacity="0"/></linearGradient><g fill="url(#a)" fill-opacity=".15"><path d="m127.119 530.771c.044-4.217.087-8.157.13-12.09.702-.212 1.058-.427 1.398-.405 6.278.406 12.548.933 18.831 1.227 2.942.137 5.905-.201 8.86-.258 6.051-.118 5.738.861 8.608-4.687 3.953-7.643 8.22-15.134 12.174-22.775 1.776-3.431 2.962-7.145 4.698-10.599 3.103-6.175 6.383-12.269 9.657-18.362 2.806-5.22 5.707-10.393 8.569-15.586.313-.567.624-1.138.979-1.681 1.496-2.287 3.57-3.349 6.453-3.33 10.405.067 20.811.001 31.216-.019 33.794-.066 67.588-.082 101.382-.232 11.252-.05 22.502-.427 33.752-.701 3.79-.092 7.579-.284 11.364-.51 2.716-.163 2.929-.121 4.203 2.29 3.686 6.976 7.363 13.957 11.036 20.94 3.196 6.077 6.262 12.22 9.6 18.223 5.004 9 10.066 17.975 15.375 26.808 1.852 3.081 4.54 5.686 6.776 8.558.788 1.012 1.806.871 2.835.847 8.962-.212 17.923-.441 26.885-.651 1.519-.036 3.04-.005 4.822-.005.186.685.556 1.446.577 2.216.239 8.569.468 17.139.593 25.71.032 2.234-.329 2.575-2.606 2.827-3.411.379-6.847.532-10.264.859-3.185.306-3.156.369-3.122 3.321.181 15.859.339 31.719.506 47.579.058 5.52.124 11.041.18 16.562.013 1.283.002 2.567.002 3.954-1.439.845-2.977.678-4.463.669-13.268-.081-26.536-.207-39.804-.27-26.252-.125-52.503-.23-78.755-.322-11.455-.04-22.911-.029-34.366-.042-13.257-.015-26.515-.02-39.772-.052-2.386-.006-4.771-.19-7.156-.173-13.733.097-27.467.295-41.2.335-21.002.062-42.005.024-63.007.022-.748 0-1.497-.072-2.431-.119-.107-.786-.276-1.483-.285-2.182-.168-13.093-.391-26.187-.433-39.281-.019-5.609.321-11.221.548-16.829.101-2.483.271-4.965.513-7.438.158-1.621-.657-2.434-2.144-2.719-1.397-.267-2.819-.421-4.235-.589-2.734-.325-5.47-.624-8.479-.964 0-6.742 0-13.271 0-20.076zm87.421-8.196c3.34.034 6.679.077 10.018.1 18.686.127 37.373.261 56.059.367 7.442.042 14.885.012 22.328.026 12.488.023 24.976.085 37.464.074 12.759-.011 25.517-.069 38.275-.167 1.471-.011 2.938-.403 4.716-.664-.873-2.01-1.503-3.744-2.355-5.37-3.531-6.739-7.11-13.454-10.709-20.159-2.326-4.334-4.663-8.663-7.098-12.939-1.391-2.443-3.213-3.86-6.567-3.843-30.151.15-60.303.093-90.455.098-3.037.001-6.075-.025-9.112.014-7.632.095-15.263.304-22.895.294-3.154-.004-5.129 1.078-6.442 3.945-2.775 6.06-5.626 12.106-8.826 17.963-2.8 5.125-6.142 9.971-9.197 14.968-.797 1.305-1.417 2.71-2.088 4.009 2.1 1.708 4.28 1.139 6.884 1.284z"/><path d="m86.3975 545.162v76.838c-26.7776 0-53.3489 0-80.29456 0 0-1.044-.00087-2.116.0001-3.189.02381-25.918.06373-51.836.06856-77.754.01054-56.458.0033-112.916.00288-169.375 0-.922.20416-1.903-.04956-2.756-.66529-2.236.63099-3.241 2.3934-4.071 5.57318-2.625 11.16648-5.212 16.70998-7.894 13.9014-6.727 27.7592-13.538 41.677-20.232 5.795-2.788 11.6964-5.369 17.556-8.031.4969-.225 1.0443-.347 1.9362-.637 0 72.46.0001 144.642 0 217.101z"/><path d="m516.197 249.256c1.902-.9 3.379-.911 5.301.006l-1.072-118.399c-1.162-.527-2.109-.466-3.226.049-6.105 2.817-12.223 5.608-18.36 8.358-20.765 9.307-41.263 19.14-61.827 28.851-47.982 22.659-96.211 44.828-144.332 67.21-56.971 26.499-113.925 53.033-170.933 79.46-2.596 1.203-3.441 2.661-3.379 5.304.303 12.72.456 25.443.664 38.165l.001.068c.004.254.008.51.052.759.03.165.148.316.358.739h2.65c52.124 0 104.249-.007 156.374.025 1.87.001 3.523-.373 5.198-1.164 21.506-10.157 43.031-20.278 64.556-30.398 30.015-14.112 60.036-28.212 90.051-42.325l7.387-3.473c23.522-11.059 47.044-22.118 70.537-33.235z"/><path d="m518.125 96.9151c1.691-.7693 3.059-.8404 4.799-.0305l.076-96.254235c-1.689-.803815-3.049-.864506-4.781-.033858-14.096 6.760763-28.24 13.428793-42.374 20.116393-34.005 16.0903-68.015 32.1716-102.019 48.2642-41.114 19.4574-82.222 38.9269-123.336 58.3829-38.716 18.322-77.441 36.626-116.154 54.951-34.004 16.095-67.9916 32.221-101.9969 48.313-43.0833 20.387-86.1776 40.753-129.2623 61.138-.6389.302-1.2135.731-2.0768 1.259 3.0401 1.487 5.7555 2.823 8.4776 4.147 26.3291 12.798 52.6612 25.591 78.9836 38.403 1.3142.64 2.41988 1.026 3.98391.317 8.459538-3.833 17.04474-7.409 25.48979-11.271 23.0139-10.525 45.949-21.211 68.9752-31.711 13.6209-6.211 27.3839-12.131 41.0309-18.29 10.626-4.797 21.141-9.824 31.762-14.632 9.84-4.455 19.768-8.726 29.627-13.142 2.667-1.195 5.173-2.727 7.84-3.922 6.919-3.098 13.937-5.994 20.827-9.152 24.643-11.293 49.204-22.754 73.877-33.985 75.401-34.322 150.842-68.562 226.251-102.8679z"/></g></svg>
